public/images/logos/lancaster.svg

<svg width="972" height="274" viewBox="0 0 972 274" fill="none" xmlns="http://www.w3.org/2000/svg">
<path d="M15.2 154.401H76V169.601H15.2C6.8 169.601 0 162.801 0 154.401V93.6009H15.2V154.401ZM146.5 97.9009C148.1 99.4009 149.2 101.401 150 103.401L173.8 169.601H130.5L135.8 154.401H152.1L135.8 108.801L114.1 169.601H97.8L121.6 103.401C122.3 101.301 123.5 99.4009 125.1 97.9009C131 92.1009 140.7 92.1009 146.6 97.9009H146.5ZM256.2 93.5009H271.4V161.901C271.4 166.101 268 169.501 263.8 169.501C259.6 169.501 260 168.701 258.6 167.401L210.6 119.401V169.601H195.4V101.201C195.4 97.0009 198.8 93.6009 203 93.6009C205 93.6009 206.8 94.4009 208.2 95.7009L256.2 143.701V93.5009ZM293 154.401V108.801C293 100.401 299.8 93.6009 308.2 93.6009H369V108.801H308.2V154.401H369V169.601H308.2C299.8 169.601 293 162.801 293 154.401ZM428.7 108.801L407 169.601H390.7L414.5 103.401C415.2 101.301 416.4 99.4009 418 97.9009C423.9 92.1009 433.6 92.1009 439.5 97.9009C441.1 99.4009 442.2 101.401 443 103.401L466.8 169.601H423.5L428.8 154.401H445.1L428.8 108.801H428.7ZM564.4 162.001C564.4 166.201 561 169.601 556.8 169.601H488.4V154.401H538.6L490.6 106.401C489.2 105.001 488.4 103.201 488.4 101.201C488.4 97.0009 491.8 93.6009 496 93.6009H564.4V108.801H514.2L562.2 156.801C563.6 158.201 564.4 160.001 564.4 162.001ZM586 93.5009H662V108.701H631.6V169.501H616.4V108.701H586V93.5009ZM698.9 93.5009H759.7V108.701H698.9V123.901H759.7V139.101H698.9V154.301H759.7V169.501H698.9C690.5 169.501 683.7 162.701 683.7 154.301V108.701C683.7 100.301 690.5 93.5009 698.9 93.5009ZM842.2 139.201L857.4 169.601H840.3L825.1 139.201H796.6V169.601H781.4V124.001H842.2V108.801H781.4V93.6009H842.2C850.5 93.6009 857.4 102.101 857.4 108.801V124.001C857.4 130.601 850.5 139.201 842.2 139.201ZM136.9 267.301L140.8 260.501C144.9 264.301 150.2 266.001 157.2 266.001C164.2 266.001 168.2 263.601 168.2 259.601C168.2 255.601 166.1 256.101 155.6 254.701C146.7 253.501 137.6 252.201 137.6 242.701C137.6 233.201 145 228.601 156 228.601C167 228.601 172 233.001 174.5 238.501L167.9 242.101C166.5 238.501 162.6 236.001 155.7 236.001C148.8 236.001 145.7 238.601 145.7 242.101C145.7 245.601 148.1 246.101 157.2 247.301C166.7 248.501 176.3 249.501 176.3 259.301C176.3 269.101 168 273.401 157 273.401C146 273.401 142.7 271.601 137.1 267.201L136.9 267.301ZM225.6 265.201V272.801H190.9V229.401H225.1V237.001H198.9V247.301H215.5V254.901H198.9V265.301H225.6V265.201ZM236.1 251.001C236.1 238.501 244.8 228.601 258.5 228.601C272.2 228.601 274.7 233.201 277.8 239.701L271 243.601C269 239.101 264.6 236.201 258.6 236.201C249.4 236.201 244.2 242.801 244.2 251.001C244.2 259.201 249.7 265.801 258.8 265.801C267.9 265.801 269.3 262.901 271.3 258.501L278.1 262.401C275 268.801 267.9 273.501 258.6 273.501C244.9 273.501 236 263.501 236 251.101L236.1 251.001ZM289.5 251.001C289.5 238.701 298.7 228.601 312.6 228.601C326.5 228.601 335.7 238.701 335.7 251.001C335.7 263.301 326.4 273.401 312.6 273.401C298.8 273.401 289.5 263.301 289.5 251.001ZM327.5 251.001C327.5 242.701 321.7 236.201 312.5 236.201C303.3 236.201 297.6 242.701 297.6 251.001C297.6 259.301 303.4 265.801 312.5 265.801C321.6 265.801 327.5 259.401 327.5 251.001ZM390.5 229.301V272.701H383.4L358.9 242.501V272.701H350.8V229.301H357.9L382.4 259.501V229.301H390.5ZM448.4 251.001C448.4 263.301 438.7 272.701 425.8 272.701H408.1V229.301H425.8C438.7 229.301 448.4 238.701 448.4 251.001ZM440.3 251.001C440.3 242.701 434.3 236.901 425.7 236.901H416.1V265.201H425.7C434.3 265.201 440.3 259.301 440.3 251.101V251.001ZM498.4 265.201V272.801H463.7V229.401H497.9V237.001H471.7V247.301H488.3V254.901H471.7V265.301H498.4V265.201ZM582.9 229.301V272.701H574.8V242.801L560.7 261.601H559.9L545.7 242.701V272.701H537.6V229.301H544.6L560.2 250.201L575.9 229.301H582.9ZM642.3 272.201V272.801H633.7L630 264.201H607.9L604.2 272.801H595.6V272.201L614.9 229.401H622.9L642.1 272.201H642.3ZM626.9 256.901L619 238.501L611.1 256.901H626.9ZM663.3 229.301V272.701H655.2V229.301H663.3ZM720.5 229.301V272.701H713.4L688.9 242.501V272.701H680.8V229.301H687.9L712.4 259.501V229.301H720.5Z" fill="black"/>
<path d="M932.3 88.3439C931.6 89.2439 931 90.1439 930.9 91.3439C930.8 92.4439 931.5 93.7439 932.6 93.8439C933.5 93.8439 934.2 93.2439 934.9 92.6439C949.2 78.9439 961.6 60.0439 967.4 41.1439C969.7 33.7439 971.1 27.9439 969.9 20.2439C969.2 15.8439 965.9 10.7439 962 8.54394C959.1 6.84394 955 6.24394 951.8 7.34394C948.6 8.44394 946 10.2439 943.5 12.4439C934 21.0439 928.8 33.9439 923.5 45.5439C921.6 35.4439 918 25.7439 913 16.7439C909.9 11.1439 905.9 5.74394 900.1 3.04394C887.6 -2.85606 877.3 9.24394 877.2 21.0439C877.2 26.3439 878.5 33.8439 880.2 38.8439C890 67.5439 906.7 89.4439 933.5 108.644C934.1 109.044 934.7 109.444 935.4 109.244C936.2 109.044 936.4 108.044 936.1 107.244C935.8 106.444 935.2 105.944 934.6 105.444C912 86.3439 894.1 61.1439 885.9 32.6439C884.6 28.2439 883.6 23.6439 884.5 19.2439C885.4 14.8439 888.9 10.5439 893.4 10.1439C898.8 9.64394 903.2 14.3439 906.2 18.8439C912.2 27.9439 916.4 38.1439 918.6 48.8439C919 50.5439 919.3 52.3439 920.4 53.7439C921.5 55.1439 923.5 55.9439 925 55.0439C925.8 54.6439 926.2 53.8439 926.7 53.0439C933.7 41.0439 936.8 26.4439 947.1 17.1439C949.5 14.9439 952.8 13.0439 955.9 13.8439C959.5 14.7439 961.3 18.7439 961.9 22.3439C962.8 28.1439 961.7 34.0439 960.1 39.5439C954.7 57.5439 943.5 73.0439 932.3 88.1439V88.3439Z" fill="#BE1622"/>
<path d="M882.993 4.29494C887.54 0.174944 893.88 -1.55106 900.74 1.68694C906.98 4.59394 911.17 10.3429 914.31 16.0159L914.78 16.8739C918.88 24.4169 922.01 32.4389 924.01 40.7719C928.7 30.3679 933.87 19.1389 942.49 11.3319L942.51 11.3179C945.09 9.04494 947.86 7.11194 951.31 5.92594C954.97 4.66894 959.51 5.35594 962.74 7.23694C964.94 8.48094 966.9 10.4959 968.4 12.7369C969.8 14.8409 970.85 17.2369 971.3 19.5469L971.38 20.0089V20.0129C972.64 28.0609 971.15 34.1329 968.83 41.5889C962.95 60.7619 950.4 79.8739 935.94 93.7279L935.91 93.7559L935.88 93.7829C935.28 94.2939 934.15 95.3429 932.6 95.3429H932.53L932.46 95.3379C931.32 95.2339 930.5 94.5159 930.03 93.7699C929.552 93.0053 929.335 92.1065 929.41 91.2079C929.53 89.7879 930.16 88.7079 930.8 87.8419V87.6479L931.1 87.2509C942.31 72.1259 953.35 56.8249 958.66 39.1129C960.24 33.6929 961.27 28.0479 960.42 22.5739C960.14 20.9119 959.59 19.2199 958.75 17.8759C957.92 16.5359 956.85 15.6289 955.54 15.2999L955.53 15.2969C954.39 15.0039 953.14 15.1829 951.83 15.7469C950.52 16.3119 949.23 17.2269 948.11 18.2499V18.2579C943.19 22.6999 939.94 28.4499 937.02 34.7149C934.15 40.8889 931.54 47.7229 928 53.7999L927.97 53.8389C927.77 54.1569 927.48 54.6759 927.16 55.0939C926.84 55.5289 926.4 55.9919 925.77 56.3289C924.57 57.0489 923.23 57.0469 922.1 56.6849C920.97 56.3269 919.95 55.5949 919.22 54.6709C917.86 52.9429 917.5 50.7179 917.14 49.1869L917.13 49.1669V49.1469C914.97 38.6329 910.84 28.6129 904.95 19.6759L904.39 18.8589C903.06 16.9619 901.5 15.1459 899.78 13.8029C897.82 12.2729 895.74 11.4339 893.54 11.6379H893.53C889.91 11.9599 886.787 15.5469 885.97 19.5449C885.2 23.3049 885.941 27.3109 887.101 31.3999L887.34 32.2189V32.2289C895.45 60.3979 913.15 85.3529 935.56 104.292L936.04 104.695C936.55 105.156 937.16 105.799 937.5 106.718C937.76 107.387 937.82 108.175 937.6 108.9C937.38 109.647 936.81 110.416 935.81 110.684V110.686L935.79 110.692L935.76 110.699V110.697C934.3 111.087 933.12 110.193 932.67 109.892L932.63 109.863C905.6 90.4969 888.69 68.3499 878.78 39.3289V39.3269C877.03 34.1799 875.7 26.5169 875.7 21.0439V21.0309L875.713 20.4409C875.927 14.3409 878.655 8.22794 882.993 4.29494ZM899.46 4.39994C893.82 1.73994 888.76 3.11294 885.008 6.51694C881.186 9.98194 878.747 15.5509 878.7 21.0569C878.702 26.1819 879.971 33.5099 881.619 38.3589C891.31 66.7319 907.8 88.3809 934.36 107.412C934.45 107.472 934.53 107.521 934.6 107.567C934.44 107.286 934.16 107.028 933.64 106.597L933.63 106.59C910.84 87.3319 892.76 61.8929 884.462 33.0699L884.22 32.2329C883.024 28.0289 882.112 23.4329 883.03 18.9429C884.012 14.1429 887.88 9.13194 893.26 8.64994C896.46 8.35394 899.28 9.61494 901.62 11.4349C903.95 13.2499 905.91 15.6969 907.45 18.0119V18.0179C913.55 27.2679 917.82 37.6319 920.06 48.5009L920.37 49.8129C920.66 51.0389 920.95 52.0129 921.58 52.8169C921.95 53.2939 922.48 53.6599 923 53.8269C923.52 53.9899 923.93 53.9379 924.23 53.7569L924.28 53.7279L924.33 53.7019C924.45 53.6419 924.58 53.5349 924.76 53.2939C924.97 53.0169 925.12 52.7409 925.41 52.2749C928.86 46.3549 931.3 39.8949 934.3 33.4489C937.26 27.0889 940.72 20.8889 946.09 16.0309C947.38 14.8569 948.94 13.7249 950.65 12.9909C952.35 12.2569 954.3 11.8859 956.26 12.3889L956.28 12.3909C958.55 12.9649 960.19 14.5049 961.3 16.2869C962.27 17.8409 962.89 19.6449 963.24 21.3669L963.38 22.0969V22.1149C964.33 28.2359 963.16 34.3869 961.54 39.9629V39.9749C956.1 58.1019 944.89 73.6849 933.8 88.6389V88.8589L933.48 89.2639C932.81 90.1309 932.46 90.7339 932.39 91.4689V91.4789C932.37 91.6889 932.44 91.9609 932.57 92.1679C932.63 92.2609 932.68 92.3069 932.71 92.3299C932.79 92.3119 932.9 92.2719 933.05 92.1829C933.29 92.0379 933.54 91.8329 933.89 91.5299C948.02 77.9869 960.25 59.3159 965.97 40.7039V40.6989C968.25 33.3559 969.56 27.8249 968.42 20.4749C968.11 18.5279 967.2 16.3549 965.9 14.4009C964.6 12.4429 962.96 10.8059 961.26 9.85094L961.25 9.84494L961.24 9.83794C958.67 8.32994 955.02 7.82294 952.29 8.76294C949.34 9.77594 946.91 11.4429 944.49 13.5699C935.29 21.9109 930.22 34.4409 924.86 46.1679L922.9 50.4669L922.03 45.8209C920.16 35.8879 916.62 26.3399 911.69 17.4719V17.4709C908.63 11.9459 904.82 6.89794 899.47 4.40394L899.46 4.39994Z" fill="#BE1622"/>
</svg>

<svg xmlns="http://www.w3.org/2000/svg" width="972" height="274" fill="none"><path fill="#000" d="M15.2 154.401H76v15.2H15.2c-8.4 0-15.2-6.8-15.2-15.2v-60.8h15.2v60.8Zm131.3-56.5c1.6 1.5 2.7 3.5 3.5 5.5l23.8 66.2h-43.3l5.3-15.2h16.3l-16.3-45.6-21.7 60.8H97.8l23.8-66.2c.7-2.1 1.9-4 3.5-5.5 5.9-5.8 15.6-5.8 21.5 0h-.1Zm109.7-4.4h15.2v68.4c0 4.2-3.4 7.6-7.6 7.6-4.2 0-3.8-.8-5.2-2.1l-48-48v50.2h-15.2v-68.4c0-4.2 3.4-7.6 7.6-7.6 2 0 3.8.8 5.2 2.1l48 48v-50.2Zm36.8 60.9v-45.6c0-8.4 6.8-15.2 15.2-15.2H369v15.2h-60.8v45.6H369v15.2h-60.8c-8.4 0-15.2-6.8-15.2-15.2Zm135.7-45.6-21.7 60.8h-16.3l23.8-66.2c.7-2.1 1.9-4 3.5-5.5 5.9-5.8 15.6-5.8 21.5 0 1.6 1.5 2.7 3.5 3.5 5.5l23.8 66.2h-43.3l5.3-15.2h16.3l-16.3-45.6h-.1Zm135.7 53.2c0 4.2-3.4 7.6-7.6 7.6h-68.4v-15.2h50.2l-48-48c-1.4-1.4-2.2-3.2-2.2-5.2 0-4.2 3.4-7.6 7.6-7.6h68.4v15.2h-50.2l48 48c1.4 1.4 2.2 3.2 2.2 5.2Zm21.6-68.5h76v15.2h-30.4v60.8h-15.2v-60.8H586v-15.2Zm112.9 0h60.8v15.2h-60.8v15.2h60.8v15.2h-60.8v15.2h60.8v15.2h-60.8c-8.4 0-15.2-6.8-15.2-15.2v-45.6c0-8.4 6.8-15.2 15.2-15.2Zm143.3 45.7 15.2 30.4h-17.1l-15.2-30.4h-28.5v30.4h-15.2v-45.6h60.8v-15.2h-60.8v-15.2h60.8c8.3 0 15.2 8.5 15.2 15.2v15.2c0 6.6-6.9 15.2-15.2 15.2Zm-705.3 128.1 3.9-6.8c4.1 3.8 9.4 5.5 16.4 5.5 7 0 11-2.4 11-6.4s-2.1-3.5-12.6-4.9c-8.9-1.2-18-2.5-18-12s7.4-14.1 18.4-14.1c11 0 16 4.4 18.5 9.9l-6.6 3.6c-1.4-3.6-5.3-6.1-12.2-6.1-6.9 0-10 2.6-10 6.1 0 3.5 2.4 4 11.5 5.2 9.5 1.2 19.1 2.2 19.1 12s-8.3 14.1-19.3 14.1-14.3-1.8-19.9-6.2l-.2.1Zm88.7-2.1v7.6h-34.7v-43.4h34.2v7.6h-26.2v10.3h16.6v7.6h-16.6v10.4h26.7v-.1Zm10.5-14.2c0-12.5 8.7-22.4 22.4-22.4s16.2 4.6 19.3 11.1l-6.8 3.9c-2-4.5-6.4-7.4-12.4-7.4-9.2 0-14.4 6.6-14.4 14.8 0 8.2 5.5 14.8 14.6 14.8s10.5-2.9 12.5-7.3l6.8 3.9c-3.1 6.4-10.2 11.1-19.5 11.1-13.7 0-22.6-10-22.6-22.4l.1-.1Zm53.4 0c0-12.3 9.2-22.4 23.1-22.4 13.9 0 23.1 10.1 23.1 22.4 0 12.3-9.3 22.4-23.1 22.4s-23.1-10.1-23.1-22.4Zm38 0c0-8.3-5.8-14.8-15-14.8s-14.9 6.5-14.9 14.8 5.8 14.8 14.9 14.8c9.1 0 15-6.4 15-14.8Zm63-21.7v43.4h-7.1l-24.5-30.2v30.2h-8.1v-43.4h7.1l24.5 30.2v-30.2h8.1Zm57.9 21.7c0 12.3-9.7 21.7-22.6 21.7h-17.7v-43.4h17.7c12.9 0 22.6 9.4 22.6 21.7Zm-8.1 0c0-8.3-6-14.1-14.6-14.1h-9.6v28.3h9.6c8.6 0 14.6-5.9 14.6-14.1v-.1Zm58.1 14.2v7.6h-34.7v-43.4h34.2v7.6h-26.2v10.3h16.6v7.6h-16.6v10.4h26.7v-.1Zm84.5-35.9v43.4h-8.1v-29.9l-14.1 18.8h-.8l-14.2-18.9v30h-8.1v-43.4h7l15.6 20.9 15.7-20.9h7Zm59.4 42.9v.6h-8.6l-3.7-8.6h-22.1l-3.7 8.6h-8.6v-.6l19.3-42.8h8l19.2 42.8h.2Zm-15.4-15.3-7.9-18.4-7.9 18.4h15.8Zm36.4-27.6v43.4h-8.1v-43.4h8.1Zm57.2 0v43.4h-7.1l-24.5-30.2v30.2h-8.1v-43.4h7.1l24.5 30.2v-30.2h8.1Z"/><path fill="#BE1622" d="M932.3 88.344c-.7.9-1.3 1.8-1.4 3-.1 1.1.6 2.4 1.7 2.5.9 0 1.6-.6 2.3-1.2 14.3-13.7 26.7-32.6 32.5-51.5 2.3-7.4 3.7-13.2 2.5-20.9-.7-4.4-4-9.5-7.9-11.7-2.9-1.7-7-2.3-10.2-1.2-3.2 1.1-5.8 2.9-8.3 5.1-9.5 8.6-14.7 21.5-20 33.1-1.9-10.1-5.5-19.8-10.5-28.8-3.1-5.6-7.1-11-12.9-13.7-12.5-5.9-22.8 6.2-22.9 18 0 5.3 1.3 12.8 3 17.8 9.8 28.7 26.5 50.6 53.3 69.8.6.4 1.2.8 1.9.6.8-.2 1-1.2.7-2-.3-.8-.9-1.3-1.5-1.8-22.6-19.1-40.5-44.3-48.7-72.8-1.3-4.4-2.3-9-1.4-13.4.9-4.4 4.4-8.7 8.9-9.1 5.4-.5 9.8 4.2 12.8 8.7 6 9.1 10.2 19.3 12.4 30 .4 1.7.7 3.5 1.8 4.9 1.1 1.4 3.1 2.2 4.6 1.3.8-.4 1.2-1.2 1.7-2 7-12 10.1-26.6 20.4-35.9 2.4-2.2 5.7-4.1 8.8-3.3 3.6.9 5.4 4.9 6 8.5.9 5.8-.2 11.7-1.8 17.2-5.4 18-16.6 33.5-27.8 48.6v.2Z"/><path fill="#BE1622" d="M882.993 4.295c4.547-4.12 10.887-5.846 17.747-2.608 6.24 2.907 10.43 8.656 13.57 14.329l.47.858c4.1 7.543 7.23 15.565 9.23 23.898 4.69-10.404 9.86-21.633 18.48-29.44l.02-.014c2.58-2.273 5.35-4.206 8.8-5.392 3.66-1.257 8.2-.57 11.43 1.31 2.2 1.245 4.16 3.26 5.66 5.5 1.4 2.105 2.45 4.5 2.9 6.81l.08.463v.004c1.26 8.048-.23 14.12-2.55 21.576-5.88 19.173-18.43 38.285-32.89 52.139l-.03.028-.03.027c-.6.51-1.73 1.56-3.28 1.56h-.07l-.07-.005c-1.14-.104-1.96-.822-2.43-1.568a4.177 4.177 0 0 1-.62-2.562c.12-1.42.75-2.5 1.39-3.366v-.194l.3-.397c11.21-15.125 22.25-30.426 27.56-48.138 1.58-5.42 2.61-11.065 1.76-16.54-.28-1.661-.83-3.353-1.67-4.697-.83-1.34-1.9-2.247-3.21-2.576l-.01-.003c-1.14-.293-2.39-.114-3.7.45-1.31.565-2.6 1.48-3.72 2.503v.008c-4.92 4.442-8.17 10.192-11.09 16.457-2.87 6.174-5.48 13.008-9.02 19.085l-.03.039c-.2.318-.49.837-.81 1.255-.32.435-.76.898-1.39 1.235-1.2.72-2.54.718-3.67.356-1.13-.358-2.15-1.09-2.88-2.014-1.36-1.728-1.72-3.953-2.08-5.484l-.01-.02v-.02c-2.16-10.514-6.29-20.534-12.18-29.471l-.56-.817c-1.33-1.897-2.89-3.713-4.61-5.056-1.96-1.53-4.04-2.37-6.24-2.165h-.01c-3.62.322-6.743 3.909-7.56 7.907-.77 3.76-.029 7.766 1.131 11.855l.239.819v.01c8.11 28.169 25.81 53.124 48.22 72.063l.48.403c.51.461 1.12 1.104 1.46 2.023.26.669.32 1.457.1 2.182-.22.747-.79 1.516-1.79 1.784v.002l-.02.006-.03.007v-.002c-1.46.39-2.64-.504-3.09-.805l-.04-.029c-27.03-19.366-43.94-41.513-53.85-70.534v-.002c-1.75-5.147-3.08-12.81-3.08-18.283v-.013l.013-.59c.214-6.1 2.942-12.213 7.28-16.146Zm16.467.105c-5.64-2.66-10.7-1.287-14.452 2.117-3.822 3.465-6.261 9.034-6.308 14.54.002 5.125 1.271 12.453 2.919 17.302 9.691 28.373 26.181 50.022 52.741 69.053.09.06.17.109.24.155-.16-.281-.44-.539-.96-.97l-.01-.007c-22.79-19.258-40.87-44.697-49.168-73.52l-.242-.837c-1.196-4.204-2.108-8.8-1.19-13.29.982-4.8 4.85-9.811 10.23-10.293 3.2-.296 6.02.965 8.36 2.785 2.33 1.815 4.29 4.262 5.83 6.577v.006c6.1 9.25 10.37 19.614 12.61 30.483l.31 1.312c.29 1.226.58 2.2 1.21 3.004.37.477.9.843 1.42 1.01.52.163.93.11 1.23-.07l.05-.03.05-.025c.12-.06.25-.167.43-.408.21-.277.36-.553.65-1.02 3.45-5.92 5.89-12.38 8.89-18.825 2.96-6.36 6.42-12.56 11.79-17.418 1.29-1.174 2.85-2.306 4.56-3.04 1.7-.734 3.65-1.105 5.61-.602l.02.002c2.27.574 3.91 2.114 5.02 3.896.97 1.554 1.59 3.358 1.94 5.08l.14.73v.018c.95 6.12-.22 12.272-1.84 17.848v.012c-5.44 18.127-16.65 33.71-27.74 48.664v.22l-.32.405c-.67.867-1.02 1.47-1.09 2.205v.01c-.02.21.05.482.18.689.06.093.11.139.14.162.08-.018.19-.058.34-.147.24-.145.49-.35.84-.653 14.13-13.543 26.36-32.214 32.08-50.826v-.005c2.28-7.343 3.59-12.874 2.45-20.224-.31-1.947-1.22-4.12-2.52-6.074-1.3-1.958-2.94-3.595-4.64-4.55l-.01-.006-.01-.007c-2.57-1.508-6.22-2.015-8.95-1.075-2.95 1.013-5.38 2.68-7.8 4.807-9.2 8.34-14.27 20.87-19.63 32.598l-1.96 4.299-.87-4.646c-1.87-9.933-5.41-19.481-10.34-28.35-3.06-5.525-6.87-10.573-12.22-13.067l-.01-.004Z"/></svg>
